X:815
T:Pretty Peggy's Minuet
C:John Young, c.1719
L:1/4
%%MIDI gchord czc
%%MIDI beat 100 95 80
S:Colin Hume's website,  colinhume.com  - chords can also be printed below the stave.
Q:1/4=130
M:3/4
R:Minuet
K:Dm
P:A
|: "Dm"d f/e/f/d/ | "A"aAA | "Dm"def | "C7"e/d/e/f/g/e/ |\
"F"f/g/ a g/f/ | "Gm"e/f/ g f/e/ | "F/C"cf "C7"e | "F"f3 :|
P:B
|: "F"f/g/ a g/f/ | "C"e/f/ g f/e/ | "Dm"d/e/f/e/f/d/ | "A7"eA2 |\
"Dm"def | "A7"eae | "Dm"f "Gm"g/f/"A7"e/f/ | "Dm"d3 :|

